storage/app/icons/phosphoricons/thin/floppy-disk-thin.svg

<svg xmlns="http://www.w3.org/2000/svg" fill="currentColor" viewBox="0 0 256 256"><path d="m216.49 74.83-35.32-35.32a11.93 11.93 0 0 0-8.48-3.51H48a12 12 0 0 0-12 12v160a12 12 0 0 0 12 12h160a12 12 0 0 0 12-12V83.31a11.93 11.93 0 0 0-3.51-8.48M172 212H84v-60a4 4 0 0 1 4-4h80a4 4 0 0 1 4 4Zm40-4a4 4 0 0 1-4 4h-28v-60a12 12 0 0 0-12-12H88a12 12 0 0 0-12 12v60H48a4 4 0 0 1-4-4V48a4 4 0 0 1 4-4h124.69a4 4 0 0 1 2.82 1.17l35.32 35.32a4 4 0 0 1 1.17 2.82ZM156 72a4 4 0 0 1-4 4H96a4 4 0 0 1 0-8h56a4 4 0 0 1 4 4"/></svg>

<svg xmlns="http://www.w3.org/2000/svg" viewBox="0 0 256 256" fill="currentColor"><path d="M216.49,74.83,181.17,39.51A11.93,11.93,0,0,0,172.69,36H48A12,12,0,0,0,36,48V208a12,12,0,0,0,12,12H208a12,12,0,0,0,12-12V83.31A11.93,11.93,0,0,0,216.49,74.83ZM172,212H84V152a4,4,0,0,1,4-4h80a4,4,0,0,1,4,4Zm40-4a4,4,0,0,1-4,4H180V152a12,12,0,0,0-12-12H88a12,12,0,0,0-12,12v60H48a4,4,0,0,1-4-4V48a4,4,0,0,1,4-4H172.69a4,4,0,0,1,2.82,1.17l35.32,35.32A4,4,0,0,1,212,83.31ZM156,72a4,4,0,0,1-4,4H96a4,4,0,0,1,0-8h56A4,4,0,0,1,156,72Z"/></svg>
